packages/foundations/assets/icons/functional/images/notification/cross_circle_20.svg

<svg width="20" height="20" viewBox="0 0 20 20" fill="none" xmlns="http://www.w3.org/2000/svg">
<g clip-path="url(#clip0_187_165)">
<path fill-rule="evenodd" clip-rule="evenodd" d="M10 2C14.4062 2 18 5.5938 18 10C18 14.4062 14.4062 18 10 18C5.5938 18 2 14.4062 2 10C2 5.5938 5.5938 2 10 2ZM10 4C6.6875 4 4 6.6875 4 10C4 13.3125 6.6875 16 10 16C13.3125 16 16 13.3125 16 10C16 6.6875 13.3125 4 10 4ZM12.125 6.5L13.5 7.9062L11.4062 10L13.5 12.0938L12.0938 13.5L10 11.4062L7.9062 13.5L6.5 12.0938L8.5938 10L6.5 7.9062L7.9062 6.5L10 8.5938L12.125 6.5Z" fill="#1A1C1F"/>
</g>
<defs>
<clipPath id="clip0_187_165">
<rect width="20" height="20" fill="white"/>
</clipPath>
</defs>
</svg>

<svg xmlns="http://www.w3.org/2000/svg" width="20" height="20" fill="none"><g clip-path="url(#a)"><path fill="#1A1C1F" fill-rule="evenodd" d="M10 2c4.406 0 8 3.594 8 8s-3.594 8-8 8-8-3.594-8-8 3.594-8 8-8m0 2c-3.312 0-6 2.688-6 6 0 3.313 2.688 6 6 6 3.313 0 6-2.687 6-6 0-3.312-2.687-6-6-6m2.125 2.5L13.5 7.906 11.406 10l2.094 2.094-1.406 1.406L10 11.406 7.906 13.5 6.5 12.094 8.594 10 6.5 7.906 7.906 6.5 10 8.594z" clip-rule="evenodd"/></g><defs><clipPath id="a"><path fill="#fff" d="M0 0h20v20H0z"/></clipPath></defs></svg>
